X:203
T:The mouth of the Tobique
R:Reel
O:Canada
B:The Portland Collection
S:Pubscouts...
S:My arrangement from various sources
Z:Transcription, arrangement, chords:Mike Long
M:C|
L:1/8
K:G
(3(DEF)|\
"G"GFGA Bded|BdBG DGBG|"D"ABAF DFAF|"G"GABc "D"d2 (3(DEF)|\
"G"GFGA Bded|BdBG DGBG|
"D"ABAF DFAF|"G"GB"D"AF "G"G2:|\
|:ef|\
"G"gfga gdBg|"D"fdAd f2gf|"C"ecAG "D"FDEF|"G"GABc "D"d2ef|
"G"gfga gdBg|"D"fdAd f2gf|"C"ecAG "D"FDEF|"G"GB"D"AF "G"G2:|\
|:(3(DEF)|\
"G"G2 "G"[B3G3] z"C"[c2G2] |"G"[B3G3] z "C"[c2G2] "G"[B2G2]|
"D"FGAB cAFD|"G"GABc "D"d2 (3(DEF)|\
"G"G2 "G"[B3G3] z"C"[c2G2] |"G"[B3G3] z "C"[c2G2] "G"[B2G2]|\
"D"FGAB cAFD|"G"GB"D"AF "G"G2:|
